Sources/FrostedUI/Resources/Icons.xcassets/documentLines20.imageset/document-lines-20.svg

<svg width="20" height="20" viewBox="0 0 20 20" fill="none" xmlns="http://www.w3.org/2000/svg" data-fui-icon="true">
  <path
    d="M9.93457 1.54199C10.4952 1.54205 11.0359 1.73672 11.4658 2.08887L11.6436 2.25L16.084 6.69043H16.083C16.5363 7.14366 16.791 7.75849 16.791 8.39941V16.042C16.7908 17.3764 15.7094 18.4588 14.375 18.459H5.625C4.29061 18.4588 3.20821 17.3764 3.20801 16.042V3.95898C3.20801 2.62442 4.29048 1.54219 5.625 1.54199H9.93457ZM5.625 3.04199C5.11891 3.04219 4.70801 3.45284 4.70801 3.95898V16.042C4.70821 16.548 5.11902 16.9588 5.625 16.959H14.375C14.881 16.9588 15.2908 16.548 15.291 16.042V8.45898H12.291C10.9567 8.45861 9.8752 7.37628 9.875 6.04199V3.04199H5.625ZM13.1328 13.3125C13.5468 13.3127 13.8826 13.6486 13.8828 14.0625C13.8826 14.4764 13.5467 14.8123 13.1328 14.8125H6.86719C6.45326 14.8123 6.11739 14.4764 6.11719 14.0625C6.11736 13.6486 6.45325 13.3127 6.86719 13.3125H13.1328ZM10.5781 9.88867C10.9922 9.88886 11.3281 10.2246 11.3281 10.6387C11.3278 11.0525 10.992 11.3885 10.5781 11.3887H6.86719C6.45337 11.3885 6.11756 11.0524 6.11719 10.6387C6.11719 10.2246 6.45314 9.88887 6.86719 9.88867H10.5781ZM11.375 6.04199C11.3752 6.54786 11.7852 6.95861 12.291 6.95898H14.2305L11.375 4.10352V6.04199Z"
    fill="currentColor"
  />
</svg>

<svg xmlns="http://www.w3.org/2000/svg" width="20" height="20" fill="none" data-fui-icon="true" viewBox="0 0 20 20"><path fill="currentColor" d="M9.935 1.542c.56 0 1.1.195 1.53.547l.179.161 4.44 4.44h-.001c.453.454.708 1.068.708 1.71v7.642a2.417 2.417 0 0 1-2.416 2.417h-8.75a2.42 2.42 0 0 1-2.417-2.417V3.959a2.42 2.42 0 0 1 2.417-2.417zm-4.31 1.5a.92.92 0 0 0-.917.917v12.083c0 .506.411.917.917.917h8.75a.917.917 0 0 0 .916-.917V8.459h-3a2.417 2.417 0 0 1-2.416-2.417v-3zm7.508 10.27a.75.75 0 0 1 0 1.5H6.867a.75.75 0 0 1 0-1.5zM10.578 9.89a.75.75 0 0 1 0 1.5h-3.71a.75.75 0 0 1 0-1.5zm.797-3.847c0 .506.41.917.916.917h1.94l-2.856-2.855z"/></svg>
